svgs/duotone/square-s.svg

<svg xmlns="http://www.w3.org/2000/svg" viewBox="0 0 448 512"><!--! Font Awesome Pro 6.3.0 by @fontawesome - https://fontawesome.com License - https://fontawesome.com/license (Commercial License) Copyright 2023 Fonticons, Inc. --><defs><style>.fa-secondary{opacity:.4}</style></defs><path class="fa-primary" d="M230.4 232.9C180.5 219.1 173.7 212.4 176.5 196.6c1.031-5.688 4.156-10.27 9.344-13.61c8.594-5.547 30.84-12.88 83.63 .5781c12.81 3.297 25.94-4.469 29.19-17.31c3.281-12.84-4.469-25.92-17.31-29.19c-53.66-13.69-94.47-11.81-121.5 5.562C143.5 153.2 132.7 169.4 129.3 188.2c-11.28 63.38 48.66 80 88.31 91c49.94 13.86 56.69 20.53 53.88 36.31c-1.312 7.312-4.344 11.81-10.12 15.06c-18.09 10.09-58.5 5.844-100.6-10.7c-12.22-4.75-26.28 1.188-31.12 13.58c-4.844 12.33 1.219 26.27 13.56 31.11c18.31 7.172 54.88 19.48 90.63 19.48c18 0 35.78-3.109 50.94-11.58c18.38-10.28 30.09-27.06 33.94-48.53C329.1 260.6 270.1 243.9 230.4 232.9z"/><path class="fa-secondary" d="M384 32H64C28.65 32 0 60.65 0 96v320c0 35.35 28.65 64 64 64h320c35.35 0 64-28.65 64-64V96C448 60.65 419.3 32 384 32zM318.7 323.9c-3.844 21.47-15.56 38.25-33.94 48.53c-15.16 8.469-32.94 11.58-50.94 11.58c-35.75 0-72.31-12.31-90.63-19.48c-12.34-4.844-18.41-18.78-13.56-31.11c4.844-12.39 18.91-18.33 31.12-13.58c42.06 16.55 82.47 20.8 100.6 10.7c5.781-3.25 8.812-7.75 10.12-15.06c2.812-15.78-3.938-22.45-53.88-36.31c-39.66-11-99.59-27.62-88.31-91c3.375-18.83 14.22-35 30.59-45.55c27.03-17.38 67.84-19.25 121.5-5.562c12.84 3.266 20.59 16.34 17.31 29.19c-3.25 12.84-16.38 20.61-29.19 17.31C216.7 170.1 194.5 177.5 185.9 183c-5.188 3.344-8.312 7.922-9.344 13.61c-2.812 15.78 3.938 22.45 53.88 36.31C270.1 243.9 329.1 260.6 318.7 323.9z"/></svg>

<svg xmlns="http://www.w3.org/2000/svg" viewBox="0 0 448 512"><!-- Font Awesome Pro 6.0.0-alpha2 by @fontawesome - https://fontawesome.com License - https://fontawesome.com/license (Commercial License) --><defs><style>.fa-secondary{opacity:.4}</style></defs><path d="M384 32H64C28.654 32 0 60.654 0 96V416C0 451.346 28.654 480 64 480H384C419.346 480 448 451.346 448 416V96C448 60.654 419.346 32 384 32ZM318.719 323.938C314.875 345.406 303.156 362.188 284.781 372.469C269.625 380.938 251.844 384.047 233.844 384.047C198.094 384.047 161.531 371.734 143.219 364.563C130.875 359.719 124.812 345.781 129.656 333.453C134.5 321.063 148.562 315.125 160.781 319.875C202.844 336.422 243.25 340.672 261.344 330.578C267.125 327.328 270.156 322.828 271.469 315.516C274.281 299.734 267.531 293.063 217.594 279.203C177.937 268.203 118 251.578 129.281 188.203C132.656 169.375 143.5 153.203 159.875 142.656C186.906 125.281 227.719 123.406 281.375 137.094C294.219 140.359 301.969 153.438 298.687 166.281C295.437 179.125 282.312 186.891 269.5 183.594C216.719 170.141 194.469 177.469 185.875 183.016C180.688 186.359 177.563 190.938 176.531 196.625C173.719 212.406 180.469 219.078 230.406 232.938C270.062 243.938 330 260.562 318.719 323.938Z" class="fa-secondary"/><path d="M230.515 232.938C180.577 219.078 173.827 212.406 176.64 196.625C177.671 190.937 180.796 186.359 185.983 183.016C194.577 177.469 216.827 170.141 269.608 183.594C282.421 186.891 295.546 179.125 298.796 166.281C302.077 153.437 294.327 140.359 281.483 137.094C227.827 123.406 187.015 125.281 159.983 142.656C143.608 153.203 132.765 169.375 129.39 188.203C118.108 251.578 178.046 268.203 217.702 279.203C267.64 293.063 274.39 299.734 271.577 315.516C270.265 322.828 267.233 327.328 261.452 330.578C243.358 340.672 202.952 336.422 160.89 319.875C148.671 315.125 134.608 321.062 129.765 333.453C124.921 345.781 130.983 359.719 143.327 364.562C161.64 371.734 198.202 384.047 233.952 384.047C251.952 384.047 269.733 380.937 284.89 372.469C303.265 362.187 314.983 345.406 318.827 323.937C330.108 260.562 270.171 243.938 230.515 232.938Z" class="fa-primary"/></svg>
